X:1
T:Litlington Tower, LM
T:Litlington Tower, LM
T:Joseph Barnby, 1862
T:Public Domain Courtesy of the Cyber Hymnal™
C:Joseph Barnby, 1862
Z:Public Domain
Z:Courtesy of the Cyber Hymnal™
%%score ( 1 2 ) ( 3 4 )
L:1/8
Q:1/4=105
M:4/4
K:F
V:1 treble 
V:2 treble 
V:3 bass 
V:4 bass 
V:1
 [CF]2 | [CA]2 d2 [Fc]2 F2 | [CF]2 [EG]2 F2 [FB]2 | [FA]2 [EG]2 F2 c2 | c2 =B2 [Ec]2 [Fc]2 | %5
 [Fd]2 [Fc]2 [DB]2 [DA]2 | [DB]2 [Cc]2 [CA]2 [B,B]2 | A2 [_EG]2 [EF]2 [DF]2 x | %8
 F2 [=EG]2 !fermata!F2 |] %9
V:2
 x2 | x2 (DE) x (A,B,) x | x4 F2 x2 | x4 F2 (FE) | (DA) GF x4 | x8 | x8 | (CD) x7 | (CD) x F2 x |] %9
V:3
 [F,A,]2 | F,2 (F,G,) [A,,A,]2 (A,G,) | [C,A,]2 [C,B,]2 [D,A,]2 [D,B,]2 | [C,C]2 [B,C]2 [A,C]2 C2 | %4
 [F,D]2 (ED) [C,C]2 [A,C]2 | B,2 [F,A,]2 G,2 [D,^F,]2 | G,2 [E,G,]2 F,2 [D,F,]2 | %7
 [C,F,]2 [B,,G,]2 C3 z B, | [C,A,]2 [C,B,]2 !fermata![F,A,]2 |] %9
V:4
 x2 | F,2 B,,2 x D,2 x | x8 | x6 (A,G,) | x2 G,2 x4 | B,2 G,2 x4 | (G,=F,) x F,2 x3 | %7
 x4 A,,2 B,,2 x | x6 |] %9

